!!!COM: Mozart, Wolfgang Amadeus
!!!OPR: Quartet in C Major
!!!OTL:
!!!OMV: 4
!!!SCT: K 465
!!!SCA: Chronologisch-thematisches Verzeichnis sämtlicher Tonwerke Wolfgang Amade Mozarts (L. von Köchel; 1862, 2/1905, 3/1937, 1947)
!!!YOR: Breitkopf & Härtel Edition
!!!EED: Frances Bennion
!!!ENC: Frances Bennion
!!!CDT: 1756/1/27/-1791/12/5/
!!!OCY: Österreich
!!!YEC: Copyright (c) 1994, 2000 Center for Computer Assisted Research in the Humanities
!!!YEM: Rights to all derivative editions reserved.
!!!YEM: Refer to licensing agreement for further details.
!!!YEN: United States of America
**kern	**kern	**kern	**kern
*k[]	*k[]	*k[]	*k[]
*C:	*C:	*C:	*C:
*clefG	*clefG	*clefF	*clefC
*M2/4	*M2/4	*M2/4	*M2/4
*tb16	*tb16	*tb16	*tb16
=0-	=0-	=0-	=0-
4r	4r	4r	4r
8gg	4r	4r	4r
8gg	.	.	.
=1	=1	=1	=1
4.gg	8g	8e	4c
.	8e	8c	.
.	8g	8e	4r
8ccc	8r	8r	.
=2	=2	=2	=2
4.bb	8f	8d	4G
.	8d	8B	.
.	8f	8d	4r
8ff	8r	8r	.
=3	=3	=3	=3
8ee	8r	2r	8C
8cc	8g	.	8E
8a	8c	.	8F
8dd	8a	.	8F#
=4	=4	=4	=4
8cc	8e	8r	4G
8b	8d	8g	.
8g	4r	8f#	4r
8g	.	8f	.
=5	=5	=5	=5
8cc	8g	8e	2r
8cc	8g	8e	.
8cc#	8g	8e	.
8cc#	8g	8e	.
=6	=6	=6	=6
8dd	8g	8B	2r
8dd	8g	8B	.
8dd#	8g	8B	.
8dd#	8g	8B	.
=7	=7	=7	=7
8ee	8g	8c	8r
8gg	4cc	8e	8B-
8ff	.	8f	8A
8aa	8cc	8c	8F
=8	=8	=8	=8
8ee	8cc	4g	4G
8dd	8b	.	.
8gg	4r	4r	4r
8gg	.	.	.
=9	=9	=9	=9
4.gg	16e	16c	8C
.	16c	16G	.
.	16e	16c	8C
.	16c	16G	.
.	8e	8c	8C
8ccc	8r	8r	8r
=10	=10	=10	=10
4.bb	16f	16d	8G
.	16d	16B	.
.	16f	16d	8G
.	16d	16B	.
.	8f	8d	8G
8ff	8r	8r	8r
=11	=11	=11	=11
8ee	8r	2r	8c
8cc	8g	.	8E
8a	8c	.	8F
8dd	8a	.	8F#
=12	=12	=12	=12
8cc	8e	4r	8G
8b	8d	.	8F
8cc	8c	8G	8E
8cc	8c	8G	8E
=13	=13	=13	=13
8dd	8c	8A	8F
8dd	8c	8A	8F
8ee	8c	8B-	8G
8ee	8c	8B-	8G
=14	=14	=14	=14
8ff	8cc	8c	8A
8ff	8cc	8c	8A
8ff#	8cc	8d	8A-
8ff#	8cc	8d	8A-
=15	=15	=15	=15
8gg	4cc	8e	8G
8ee	.	8c	8G
8ff	8dd	8g	8G
16ee	16cc	8g	8G
16dd	16b	.	.
=16	=16	=16	=16
8cc	8cc	8e	8C
8r	8r	8r	8r
8c	8c	8c	8C
8c	8c	8c	8C
=17	=17	=17	=17
8B	8B	8B	8BB
8r	4.r	4.r	4.r
8ff	.	.	.
8ff	.	.	.
=18	=18	=18	=18
8ff	4r	4r	8GG
16gg	.	.	8G
16aa	.	.	.
16gg	8f	8d	8G
16ff	.	.	.
16ee	8f	8d	8G
16dd	.	.	.
=19	=19	=19	=19
8cc	8f	4.d	8G
4b	16g	.	8G
.	16a	.	.
.	16g	.	8G
.	16f	.	.
8cc	16e	8e	8G
.	16d	.	.
=20	=20	=20	=20
8cc#	8c	8f	8G
8dd	8B	8r	8r
8c	8c	8c	8C
8c	8c	8c	8C
=21	=21	=21	=21
8B	8B	8B	8BB
8r	4.r	4.r	4.r
8ff	.	.	.
8ff	.	.	.
=22	=22	=22	=22
8ff	4r	4r	8GG
16gg	.	.	8G
16aa	.	.	.
16gg	8f	8d	8G
16ff	.	.	.
16ee	8f	8d	8G
16dd	.	.	.
=23	=23	=23	=23
8cc	8f	4.d	8G
4b	16g	.	8G
.	16a	.	.
.	16g	.	8G
.	16f	.	.
8cc	16e	8e	8G
.	16d	.	.
=24	=24	=24	=24
8ee	8c	8f#	8G
8dd	8B	8g	4.r
8gg	4r	4r	.
8gg	.	.	.
=25	=25	=25	=25
4.gg	8g	8e	4c
.	8e	8c	.
.	8g	8e	4r
8ccc	8r	8r	.
=26	=26	=26	=26
4.bb	8f	8d	4G
.	8d	8B	.
.	8f	8d	4r
8ff	8r	8r	.
=27	=27	=27	=27
8ee	8r	2r	8C
8cc	8g	.	8E
8a	8c	.	8F
8dd	8a	.	8F#
=28	=28	=28	=28
8b	8d	4.r	8G
8ee	8b	.	8G#
8cc	8e	.	8A
8ff	8cc	8c	8AA
=29	=29	=29	=29
8dd	8g	8f	4BB
8gg	8ff	8d	.
4r	4r	4r	4r
=30	=30	=30	=30
4r	2r	2r	2r
8gg	.	.	.
8gg	.	.	.
=31	=31	=31	=31
4.gg	8cc	8e	8c
.	8cc	8e	8c
.	8cc	8e	8c
8gg#	8r	8r	8r
=32	=32	=32	=32
4.aa	8cc	8d	8F
.	8cc	8d	8F
.	8cc	8d	8F
16ff	8r	8r	8r
16dd	.	.	.
=33	=33	=33	=33
4.cc	16e	4.g	8G
.	16g	.	.
.	16e	.	8G
.	16g	.	.
.	16e	.	8G
.	16g	.	.
8dd	16f	8B	8G
.	16g	.	.
=34	=34	=34	=34
8cc	8e	8c	8C
8r	8r	8r	8r
8c	8c	8c	8C
8c	8c	8c	8C
=35	=35	=35	=35
8G	8G	8G	8GG
8r	8r	8r	8r
8e	8e	8e	8E
8e	8e	8e	8E
=36	=36	=36	=36
8c	8c	8c	8C
8g	8g	8g	8G
8e	8e	8e	8E
8cc	8cc	8cc	8c
=37	=37	=37	=37
8g	8g	8g	8G
8ee	8ee	8e	8e
8cc	8cc	8c	4r
8gg	8gg	8g	.
=38	=38	=38	=38
8ee	8ee	8e	2r
8ccc	8cc	8cc	.
8gg	8g	4r	.
8eee	8ee	.	.
=39	=39	=39	=39
2fff	16B	16G#	8D
.	16B	16G#	.
.	16B	16G#	8D
.	16B	16G#	.
.	16B	16G#	8D
.	16B	16G#	.
.	16B	16G#	8D
.	16B	16G#	.
=40	=40	=40	=40
2f	16B	16G#	8D
.	16B	16G#	.
.	16B	16G#	8D
.	16B	16G#	.
.	16B	16G#	8D
.	16B	16G#	.
.	16B	16G#	8D
.	16B	16G#	.
=41	=41	=41	=41
8e	8c	8A	4C
8cc	4aa	4ee	.
8a	.	.	4A
8ee	[8ee	[8cc	.
=42	=42	=42	=42
8cc	8ee]	8cc]	4E
8aa	4cc	4a	.
8ee	.	.	4c
8ccc	8a	8e	.
=43	=43	=43	=43
2eee-	16A	16F#	8C
.	16A	16F#	.
.	16A	16F#	8C
.	16A	16F#	.
.	16A	16F#	8C
.	16A	16F#	.
.	16A	16F#	8C
.	16A	16F#	.
=44	=44	=44	=44
2e-	16A	16F#	8C
.	16A	16F#	.
.	16A	16F#	8C
.	16A	16F#	.
.	16A	16F#	8C
.	16A	16F#	.
.	16A	16F#	8C
.	16A	16F#	.
=45	=45	=45	=45
8d	8B-	8G	4BB-
8b-	4gg	4dd	.
8g	.	.	4G
8dd	[8dd	[8b-	.
=46	=46	=46	=46
8b-	8dd]	8b-]	4D
8gg	4b-	4g	.
8dd	.	.	4B-
8ddd	8g	8d	.
=47	=47	=47	=47
2ccc#	16b-	16G	8E-
.	16b-	16G	.
.	16b-	16G	8E-
.	16b-	16G	.
.	16b-	16G	8E-
.	16b-	16G	.
.	16b-	16G	8E-
.	16b-	16G	.
=48	=48	=48	=48
2c#	16a	16F#	8E-
.	16a	16F#	.
.	16a	16F#	8E-
.	16a	16F#	.
.	16g	16G	8E-
.	16g	16G	.
.	16g	16G	8E-
.	16g	16G	.
=49	=49	=49	=49
8d	16f#	16A	8D
.	16f#	16A	.
8r	16f#	16A	8C
.	16f#	16A	.
8dd	16b-	16d	8BB-
.	16b-	16d	.
8dd	16b-	16d	8GG
.	16b-	16d	.
=50	=50	=50	=50
8dd	16a	16c	8FF#
.	16a	16c	.
8r	16a	16c	8DD
.	16a	16c	.
8ddd	16g	16B-	8GG
.	16g	16B-	.
8ddd	16g	16B-	8BB-
.	16g	16B-	.
=51	=51	=51	=51
8ddd	16f#	16A	8D
.	16f#	16A	.
8r	16f#	16A	8C
.	16f#	16A	.
8dd	16b-	16d	8BB-
.	16b-	16d	.
8dd	16b-	16d	8GG
.	16b-	16d	.
=52	=52	=52	=52
8dd	16a	16c	8FF#
.	16a	16c	.
8dd	16a	16c	8DD
.	16a	16c	.
8ddd	16g	16B-	8GG
.	16g	16B-	.
8ddd	16g	16B-	8BB-
.	16g	16B-	.
=53	=53	=53	=53
8ddd	8f#	8A	8D
8r	8r	8r	8r
8dd	8a	8f#	8d
8dd	8a	8f#	8d
=54	=54	=54	=54
8dd	8a	8f#	8d
8r	4.r	4.r	4.r
8b	.	.	.
8b	.	.	.
=55	=55	=55	=55
[2b	8r	2r	2r
.	8G	.	.
.	8g	.	.
.	8g	.	.
=56	=56	=56	=56
8b]	8g	2r	2r
16cc	8g	.	.
16dd	.	.	.
8ee	8g	.	.
8ee	8g	.	.
=57	=57	=57	=57
8ee	8f#	2r	2r
8a	8f#	.	.
8dd	8f	.	.
8dd	8f	.	.
=58	=58	=58	=58
8dd	8e	2r	2r
8g	8e	.	.
8cc	8e-	.	.
8cc	8e-	.	.
=59	=59	=59	=59
8.cc	4d	2r	2r
16dd	.	.	.
8.b	4e	.	.
16cc	.	.	.
=60	=60	=60	=60
8.a	4c	2r	2r
16b	.	.	.
8.g	4c#	.	.
16a	.	.	.
=61	=61	=61	=61
8f#	8d	2r	2r
8a	8A	.	.
8a	8A	.	.
8a	8A	.	.
=62	=62	=62	=62
8a	8A	8r	2r
8a#	8A#	8F#	.
8b	8B	8G	.
8b	8B	8G	.
=63	=63	=63	=63
[2b	[2B	8G	8r
.	.	8D#	8FF#
.	.	8E	8GG
.	.	8E	8GG
=64	=64	=64	=64
8b]	8B]	8E	4GG
16cc#	8B-	8E	.
16dd	.	.	.
8ee	8b-	8c#	8G
8ee	8b-	8c#	8G
=65	=65	=65	=65
8ee	8b-	8c#	8G
8a	8a	8d	8F#
8dd	8a-	8B	8F
8dd	8a-	8B	8F
=66	=66	=66	=66
8dd	8a-	8B	8F
8g	8g	8c	8E
8cc	8g	8c	8E-
8cc	8g	8c	8E-
=67	=67	=67	=67
8.cc	4f#	4A	4D
16dd	.	.	.
8.b	[4g	4G	4E
16cc	.	.	.
=68	=68	=68	=68
2a	4g]	4e	4C
.	4f#	8d	4D
.	.	8c	.
=69	=69	=69	=69
8g	4g	4B	4GG
8r	.	.	.
16cc#	4r	4r	4r
16dd	.	.	.
16cc#	.	.	.
16dd	.	.	.
=70	=70	=70	=70
16ee	8d 8B	8G	8G
16dd	.	.	.
16cc#	8d 8B	8G	8r
16dd	.	.	.
16cc	8d 8B	8G	8GG
16b	.	.	.
16a	8d 8B	8G	8r
16g	.	.	.
=71	=71	=71	=71
16g	4d 4c	4A	4D
16f#	.	.	.
16e	.	.	.
16d	.	.	.
16cc#	4r	4r	4r
16dd	.	.	.
16cc#	.	.	.
16dd	.	.	.
=72	=72	=72	=72
16ee	8f# 8A	8d 8c	8D
16dd	.	.	.
16cc	8f# 8A	8d 8c	8r
16b	.	.	.
16a	8f# 8A	8d 8c	8DD
16b	.	.	.
16cc	8f# 8A	8d 8c	8r
16dd	.	.	.
=73	=73	=73	=73
16cc	4g 4G	4d 4B	4GG
16b	.	.	.
16a	.	.	.
16g	.	.	.
16cc#	4r	4r	4r
16dd	.	.	.
16cc#	.	.	.
16dd	.	.	.
=74	=74	=74	=74
16ee	8d 8B	8G	8G
16dd	.	.	.
16cc#	8d 8B	8G	8r
16dd	.	.	.
16cc	8d 8B	8G	8GG
16b	.	.	.
16a	8d 8B	8G	8r
16g	.	.	.
=75	=75	=75	=75
16g	4d 4c	4A	4D
16f#	.	.	.
16e	.	.	.
16d	.	.	.
16cc#	4r	4r	4r
16dd	.	.	.
16cc#	.	.	.
16dd	.	.	.
=76	=76	=76	=76
16ee	8f# 8A	8d 8c	8D
16dd	.	.	.
16cc	8f# 8A	8d 8c	8r
16b	.	.	.
16a	8f# 8A	8d 8c	8DD
16b	.	.	.
16cc	8f# 8A	8d 8c	8r
16dd	.	.	.
=77	=77	=77	=77
16cc	4g 4G	4d 4B	8GG
16b	.	.	.
16a	.	.	8GG
16g	.	.	.
16ff#	8r	8r	[4G
16gg	.	.	.
16aa	8d	8B	.
16gg	.	.	.
=78	=78	=78	=78
16ff#	8e	8c	2G_
16ee	.	.	.
16dd#	8f#	8d	.
16ee	.	.	.
16dd	8g	8e	.
16cc	.	.	.
16b	8a	8f#	.
16cc	.	.	.
=79	=79	=79	=79
16b	4b	4g	8G]
16cc	.	.	.
16dd	.	.	8GG
16ee	.	.	.
16ff#	8r	8r	[4G
16gg	.	.	.
16aa	8d	8B	.
16gg	.	.	.
=80	=80	=80	=80
16ff#	8e	8c	2G_
16ee	.	.	.
16dd#	8f#	8d	.
16ee	.	.	.
16dd	8g	8e	.
16cc	.	.	.
16b	8a	8f#	.
16cc	.	.	.
=81	=81	=81	=81
16b	4b	4g	8G]
16cc	.	.	.
16dd	.	.	8GG
16ee	.	.	.
16ff#	8r	8r	[4G
16gg	.	.	.
16aa	8d	8B	.
16gg	.	.	.
=82	=82	=82	=82
16ff#	8e	8c	2G_
16ee	.	.	.
16dd#	8f#	8d	.
16ee	.	.	.
16dd	8g	8e	.
16cc	.	.	.
16b	8a	8f#	.
16cc	.	.	.
=83	=83	=83	=83
16cc	8d	8g	8G]
16b	.	.	.
16ee	8r	8r	8r
16dd	.	.	.
16cc#	4a	[4d	4F#
16dd	.	.	.
16ee	.	.	.
16dd	.	.	.
=84	=84	=84	=84
16cc	8g	8d]	8G
16b	.	.	.
16ee	8r	8r	8r
16dd	.	.	.
16cc#	4a	[4d	4F#
16dd	.	.	.
16ee	.	.	.
16dd	.	.	.
=85	=85	=85	=85
16cc	8g	8d]	8G
16b	.	.	.
16ee	8r	8r	8r
16dd	.	.	.
16cc#	4a	[4d	4F#
16dd	.	.	.
16ee	.	.	.
16dd	.	.	.
=86	=86	=86	=86
16cc	8g	8d]	8G
16b	.	.	.
16ee	8r	8r	8r
16dd	.	.	.
16cc#	4a	[4d	4F#
16dd	.	.	.
16ee	.	.	.
16dd	.	.	.
=87	=87	=87	=87
8cc	8g	8d]	8G
8b	4.r	4.r	4.r
8ee	.	.	.
8dd	.	.	.
=88	=88	=88	=88
2dd	2r	2r	2r
=89	=89	=89	=89
2ee-	2e-	8r	8r
.	.	8B-	8G
.	.	8B-	8G
.	.	8B-	8G
=90	=90	=90	=90
2b-	2B-	8r	8r
.	.	8F	8D
.	.	8F	8D
.	.	8F	8D
=91	=91	=91	=91
4g	4G	8r	8r
.	.	8B-	8E-
8r	8r	8B-	8E-
8g	8G	8B-	8E-
=92	=92	=92	=92
8b-	8B-	8r	8r
8dd	8d	8B-	8A-
8ff	8f	8B-	8A-
8dd	8d	8B-	8A-
=93	=93	=93	=93
2ee-	2e-	8r	8r
.	.	8B-	8G
.	.	8B-	8G
.	.	8B-	8G
=94	=94	=94	=94
2b-	2B-	8r	8r
.	.	8F	8D
.	.	8F	8D
.	.	8F	8D
=95	=95	=95	=95
4g	4G	8r	8r
.	.	8B-	8E-
8r	8r	8B-	8E-
8g	8G	8B-	8E-
=96	=96	=96	=96
8b-	8B-	8r	8r
8dd	8d	8B-	8A-
8ff	8f	8B-	8A-
8dd	8d	8B-	8A-
=97	=97	=97	=97
2ee-	2e-	8r	8r
.	.	8B-	8G
.	.	8B-	8G
.	.	8B-	8G
=98	=98	=98	=98
2dd	2d	8A	8F#
.	.	8A	8F#
.	.	8A-	8F
.	.	8A-	8F
=99	=99	=99	=99
8dd	8d	8G	2E
8cc	8c	8F#	.
[4cc	[4c	8G	.
.	.	8A	.
=100	=100	=100	=100
4cc]	4c]	8B-	2E-
.	.	8F#	.
4cc#	4c#	8G	.
.	.	8A	.
=101	=101	=101	=101
2dd	2d	2B	8D
.	.	.	8D
.	.	.	8D
.	.	.	8D
=102	=102	=102	=102
2f#	2c	2A	8D
.	.	.	8D
.	.	.	8D
.	.	.	8D
=103	=103	=103	=103
16g	4B	4G	4GG
16f#	.	.	.
16e	.	.	.
16d	.	.	.
16e	4r	4r	4r
16f#	.	.	.
16g	.	.	.
16a	.	.	.
=104	=104	=104	=104
16b	4g	4d	4G
16a	.	.	.
16g	.	.	.
16f#	.	.	.
16g	4r	4r	4r
16a	.	.	.
16b	.	.	.
16cc	.	.	.
=105	=105	=105	=105
16ee	4b	4g	4GG
16dd	.	.	.
16cc	.	.	.
16b	.	.	.
16cc	4r	4r	4r
16dd	.	.	.
16ee	.	.	.
16ff#	.	.	.
=106	=106	=106	=106
16gg	4dd	4b	4G
16ff#	.	.	.
16ee	.	.	.
16dd	.	.	.
16ee	4r	4r	4r
16ff#	.	.	.
16gg	.	.	.
16aa	.	.	.
=107	=107	=107	=107
16bb	4gg	4dd	4GG
16aa	.	.	.
16gg	.	.	.
16ff#	.	.	.
16gg	4r	4r	4r
16aa	.	.	.
16bb	.	.	.
16ccc	.	.	.
=108	=108	=108	=108
[2ddd	8r	4r	2r
.	8b	.	.
.	8bb	8b	.
.	8aa	8b	.
=109	=109	=109	=109
4ddd]	4gg#	8b	2r
.	.	8e	.
4ccc#	4gg	8a	.
.	.	8a	.
=110	=110	=110	=110
4ccc	4ff#	8a	4r
.	.	8d	.
8bb	8ff	8d	8G
8bb	8ff	8g	8G
=111	=111	=111	=111
8bb	8ff	8r	8G
8ccc	8ee	8g	8C
8aa#	8ee	8c#	8F#
8aa#	8ee	8f#	8F#
=112	=112	=112	=112
8aa#	8ee	8r	8F#
8bb	8dd#	8f#	8BB
8gg#	8dd	8B	8E
8gg#	8dd	8e	8E
=113	=113	=113	=113
8gg#	8dd	8r	8E
8aa	8cc#	8e	8AA
8ff#	8cc	8A	8D
8ff#	8cc	8d	8D
=114	=114	=114	=114
8ff#	8cc	8r	8D
8gg	8b	8d	8GG
8cc#	8b-	8G	8E
8cc#	8b-	8g	8E
=115	=115	=115	=115
4.dd	4.b	4.g	8D
.	.	.	8D
.	.	.	8D
8gg	8dd	8b	8D
=116	=116	=116	=116
4.b	4.g	4.d	8D
.	.	.	8D
.	.	.	8D
16cc	16a	8c	8D
16a	16f#	.	.
=117	=117	=117	=117
4g	4g	4B	4GG
4r	4r	4r	4r
=118	=118	=118	=118
16g#	4f#	4d	2c
16a	.	.	.
16b	.	.	.
16cc	.	.	.
16cc#	4a	4f#	.
16dd	.	.	.
16ee	.	.	.
16dd	.	.	.
=119	=119	=119	=119
4dd	4b	4g	4B
8gg	8g	8B	8E
8r	8r	8r	8r
=120	=120	=120	=120
4a	4g	4e	4C
8dd	8f#	8A	8D
8r	8r	8r	8r
=121	=121	=121	=121
4cc	4a	4f#	[4E
8b	8g	8g	8E]
8r	8r	8r	8r
=122	=122	=122	=122
16g#	4e	4c	2C
16a	.	.	.
16b	.	.	.
16cc	.	.	.
16cc#	4f#	4A	.
16dd	.	.	.
16ee	.	.	.
16dd	.	.	.
=123	=123	=123	=123
4dd	4g	4G	4BB
8gg	8e	8B-	8C#
8r	8r	8r	8r
=124	=124	=124	=124
4g	4d	4B	2D
4a	4f#	4c	.
=125	=125	=125	=125
8g	8g	8B	8G
8r	8r	8r	4.r
8b	8g	8e	.
8r	8r	8e	.
=126	=126	=126	=126
8cc	8a	8e	2r
8r	8r	8A	.
8a	8f#	8d	.
8r	8r	8d	.
=127	=127	=127	=127
8b	8g	8d	4r
8r	8r	8G	.
8gg	8b	8e	8E
8r	8r	8r	8E
=128	=128	=128	=128
8aa	8cc	8e	8E
8r	8r	8r	8AA
8ff#	8a	8d	8D
8r	8r	8r	8D
=129	=129	=129	=129
8gg	8b	8d	8D
8r	8r	8r	8GG
8eee	8gg	8a	8C#
8eee	8r	8r	8r
=130	=130	=130	=130
8eee	8gg	8a	8D
8aa	8r	8r	8r
8ddd	8ff#	8cc	8DD
8ddd	8r	8r	8r
=131	=131	=131	=131
8ddd	8gg	8b	8GG
8gg	8r	8r	4.r
8gg	8g	8g	.
8gg	8a	8f#	.
=132	=132	=132	=132
8gg	8b	8f	8d
8gg	8cc	8e	8c
8gg	8dd	8d	8B
8gg	8ee	8c	8A
=133	=133	=133	=133
8aa	4ff	4B	4G
8gg	.	.	.
8gg	8g	8g	4r
8gg	8a	8f#	.
=134	=134	=134	=134
8gg	8b	8f	8d
8gg	8cc	8e	8c
8gg	8dd	8d	8B
8gg	8ee	8c	8A
=135	=135	=135	=135
8aa	4ff	4B	4G
8gg	.	.	.
4r	4r	4r	4r
=136	=136	=136	=136
4r	2r	2r	2r
8gg	.	.	.
8gg	.	.	.
=137	=137	=137	=137
4.gg	8g	8e-	4c
.	8e-	8c	.
.	8g	8e-	4r
8ccc	8r	8r	.
=138	=138	=138	=138
4.bb	8f	8d	4G
.	8d	8B	.
.	8f	8d	4r
8ff	8r	8r	.
=139	=139	=139	=139
8ee-	8r	2r	8C
8cc	4g	.	8E-
8a-	.	.	8F
8dd	8f	.	8D
=140	=140	=140	=140
8cc	8e-	8r	4G
8b	8d	8g	.
8g	4r	8f#	4r
8g	.	8f	.
=141	=141	=141	=141
8cc	[2g	8e-	2r
8b	.	8d	.
8cc	.	8e-	.
8ee-	.	8c	.
=142	=142	=142	=142
8dd	4.g]	8B	2r
8cc#	.	8A	.
8dd	.	8B	.
8ff	8B	8G	.
=143	=143	=143	=143
8ee-	8c	2c	8r
8gg	8e	.	8B-
8ff	8f	.	8A-
8aa-	8cc	.	8F
=144	=144	=144	=144
8ee-	8cc	4g	4G
8dd	8b	.	.
8gg	4r	4r	4r
8gg	.	.	.
=145	=145	=145	=145
4.gg	16e-	16c	8C
.	16c	16G	.
.	16e-	16c	8C
.	16c	16G	.
.	8e-	8c	8C
8ccc	8r	8r	8r
=146	=146	=146	=146
4.bb	16f	16d	8G
.	16d	16B	.
.	16f	16d	8G
.	16d	16B	.
.	8f	8d	8G
8ff	8r	8r	8r
=147	=147	=147	=147
8ee-	8r	2r	8c
8cc	8g	.	8E-
8a	8c	.	8F
8dd	8a	.	8F#
=148	=148	=148	=148
8b	8d	2r	8G
8ee-	8g	.	8GG
8cc	8e-	.	8AA-
8ff	8cc	.	8AA
=149	=149	=149	=149
8dd	8f	4.r	8BB-
8gg	8dd	.	8BB
8ee-	8g	.	8C
8aa-	8ee-	8e-	8CC
=150	=150	=150	=150
8ff	8b-	8a-	4DD
8bb-	8aa-	8f	.
4r	4r	4r	4r
=151	=151	=151	=151
4r	2r	2r	2r
8b-	.	.	.
8b-	.	.	.
=152	=152	=152	=152
4.b-	8g	8e-	4E-
.	8e-	8B-	.
.	8g	8e-	4r
8ee-	8r	8r	.
=153	=153	=153	=153
4.dd	8a-	8f	4BB-
.	8f	8d	.
.	8a-	8f	4r
8a-	8r	8r	.
=154	=154	=154	=154
8g	8e-	2r	4r
8b-	8g	.	.
4r	4r	.	8d-
.	.	.	8d-
=155	=155	=155	=155
2r	4r	2r	8d-
.	.	.	8G
.	8dd-	.	8B-
.	8dd-	.	8B-
=156	=156	=156	=156
2r	8dd-	2r	8B-
.	8g	.	8E
.	8b-	.	4r
.	8b-	.	.
=157	=157	=157	=157
4r	8b-	2r	2r
.	8e	.	.
8cc	4r	.	.
8cc	.	.	.
=158	=158	=158	=158
4.cc	8a-	8f	4F
.	8f	8c	.
.	8a-	8f	4r
8ff	8r	8r	.
=159	=159	=159	=159
4.ee	8b-	8g	4C
.	8g	8e	.
.	8b-	8g	4r
8b-	8r	8r	.
=160	=160	=160	=160
8a	8f	2r	4r
8cc	8a	.	.
4r	4r	.	8e-
.	.	.	8e-
=161	=161	=161	=161
2r	4r	2r	8e-
.	.	.	8A
.	8ee-	.	8c
.	8ee-	.	8c
=162	=162	=162	=162
4r	8ee-	2r	8c
.	8a	.	8F#
8eee-	8ccc	.	4r
8eee-	8ccc	.	.
=163	=163	=163	=163
8eee-	8ccc	4r	4r
8aa	8ff#	.	.
8ccc	8aa	8f#	8d#
8ccc	8aa	8f#	8d#
=164	=164	=164	=164
8ccc	8aa	8f#	8d#
8ff#	8dd#	8cc	8a
8aa	8ff#	8d#	8B
8aa	8ff#	8d#	8B
=165	=165	=165	=165
8aa	8ff#	8d#	8B
8dd#	8b	8a	8f#
8bb	8b	4r	4r
8bb	8b	.	.
=166	=166	=166	=166
8bb	8b	2r	4r
8ee	8e	.	.
4gg	4b 4e	.	8E
.	.	.	8E
=167	=167	=167	=167
4ff#	4cc# 4e	4r	8E
.	.	.	8AA#
4aa#	4ee 4cc#	8f#	4r
.	.	8f#	.
=168	=168	=168	=168
4bb	4dd 4f#	8f#	4r
.	.	8B	.
4ddd	4ff# 4b	8B	8BB
.	.	8B	8BB
=169	=169	=169	=169
4ccc#	4gg# 4b	8B	8BB
.	.	8E#	8EE#
8ccc#	8cc#	4r	4r
8ccc#	8cc#	.	.
=170	=170	=170	=170
8ccc#	8cc#	2r	4r
8ff#	8f#	.	.
4aa	4cc# 4f#	.	8F#
.	.	.	8F#
=171	=171	=171	=171
4gg#	4dd# 4f#	4r	8F#
.	.	.	8BB#
4bb#	4ff# 4dd#	8g#	4r
.	.	8g#	.
=172	=172	=172	=172
4ccc#	4ee 4cc#	8g#	4r
.	.	8c#	.
4eee	4gg# 4cc#	8c#	8C#
.	.	8c#	8C#
=173	=173	=173	=173
4ddd#	4aa# 4cc#	8c#	8C#
.	.	8F##	8FF##
8ddd#	8dd#	4r	4r
8ddd#	8dd#	.	.
=174	=174	=174	=174
8ddd#	8dd#	4r	4r
8gg#	8g#	.	.
8bb	8b	8g#	8G#
8bb	8b	8g#	8G#
=175	=175	=175	=175
8bb	8b	8g#	8G#
8ee	8e	8c#	8C#
8gg#	8g#	8e	8E
8gg#	8g#	8e	8E
=176	=176	=176	=176
8gg#	8g#	8e	8E
8cc#	8c#	8A	8AA
8ee	8e	8c#	8C#
8ee	8e	8c#	8C#
=177	=177	=177	=177
8ee	8e	8c#	8C#
8a	8A	8F#	8FF#
8ccc#	8cc#	8a	8A
8ccc#	8cc#	8a	8A
=178	=178	=178	=178
8ccc#	8cc#	8a	8A
8ff#	8f#	8d#	8D#
8aa	8a	8f#	8F#
8aa	8a	8f#	8F#
=179	=179	=179	=179
8aa	8a	8f#	8F#
8gg#	8g#	8e	8E
8ff#	8f#	8d#	8D#
8ee	8e	8c#	8C#
=180	=180	=180	=180
4bb 4dd#	4b 4f# 4B	4B	4BB
4r	4r	4r	4r
=181	=181	=181	=181
4r	2r	2r	2r
8b	.	.	.
8b	.	.	.
=182	=182	=182	=182
4.b	8g#	8e	4E
.	8e	8B	.
.	8g#	8e	4r
8ee	8r	8r	.
=183	=183	=183	=183
4.dd#	8a	8f#	4BB
.	8f#	8d#	.
.	8a	8f#	4r
8a	8r	8r	.
=184	=184	=184	=184
8g#	8e	4B	4E
8b	8g#	.	.
4r	4r	4r	4r
=185	=185	=185	=185
4r	2r	2r	2r
8b	.	.	.
8b	.	.	.
=186	=186	=186	=186
4.b	8g	8e	4E
.	8e	8B	.
.	8g	8e	4r
8ee	8r	8r	.
=187	=187	=187	=187
4.dd#	8a	8f#	4BB
.	8f#	8d#	.
.	8a	8f#	4r
8a	8r	8r	.
=188	=188	=188	=188
8g	8e	4B	4E
8b	8g	.	.
4r	4r	4r	4r
=189	=189	=189	=189
4r	2r	2r	2r
8b	.	.	.
8b	.	.	.
=190	=190	=190	=190
4.b	16g	16e	4E
.	16e	16B	.
.	16g	16e	.
.	16e	16B	.
.	8g	8e	4r
8ee	8r	8r	.
=191	=191	=191	=191
4.ee	16b	16g	4E
.	16g	16e	.
.	16b	16g	.
.	16g	16e	.
.	8b	8g	4r
8gg	8r	8r	.
=192	=192	=192	=192
8gg	4B	4G	4D
8ff	.	.	.
4r	8g	8g	4r
.	8a	8f#	.
=193	=193	=193	=193
2r	8b	8f	8d
.	8cc	8e	8c
.	8dd	8d	8B
.	8ee	8c	8A
=194	=194	=194	=194
4r	8gg	4B	4G
.	8ff	.	.
8b	8g	8g	4r
8cc	8a	8f#	.
=195	=195	=195	=195
8dd	8b	8f	8d
8ee	8cc	8e	8c
8ff	8dd	8d	8B
8gg	8ee	8c	8A
=196	=196	=196	=196
8aa	4ff	4B	4G
8gg	.	.	.
8gg	4r	4r	4r
8gg	.	.	.
=197	=197	=197	=197
8aa	8ff	8d 8B	8GG
8gg	8r	8r	8r
8aa	8ff	8d 8B	8GG
8gg	8r	8r	8r
=198	=198	=198	=198
8aa	8ff	8d 8B	8GG
8gg	4.r	4.r	4.r
4r	.	.	.
=199	=199	=199	=199
4r	2r	2r	2r
8gg	.	.	.
8gg	.	.	.
=200	=200	=200	=200
4.gg	8g	8e	4c
.	8e	8c	.
.	8g	8e	4r
8ccc	8r	8r	.
=201	=201	=201	=201
4.bb	8f	8d	4G
.	8d	8B	.
.	8f	8d	4r
8ff	8r	8r	.
=202	=202	=202	=202
8ee	8r	2r	8C
8cc	8g	.	8E
8a	8c	.	8F
8dd	8a	.	8F#
=203	=203	=203	=203
8cc	8e	8r	4G
8b	8d	8g	.
8g	4r	8f#	4r
8g	.	8f	.
=204	=204	=204	=204
8cc	8g	8e	2r
8cc	8g	8e	.
8cc#	8g	8e	.
8cc#	8g	8e	.
=205	=205	=205	=205
8dd	8g	8B	2r
8dd	8g	8B	.
8dd#	8g	8B	.
8dd#	8g	8B	.
=206	=206	=206	=206
8ee	8g	8c	8r
8gg	4cc	8e	8B-
8ff	.	8f	8A
8aa	8cc	8c	8F
=207	=207	=207	=207
8ee	8cc	4g	4G
8dd	8b	.	.
8gg	4r	4r	4r
8gg	.	.	.
=208	=208	=208	=208
4.gg	16e	16c	8C
.	16c	16G	.
.	16e	16c	8C
.	16c	16G	.
.	8e	8c	8C
8ccc	8r	8r	8r
=209	=209	=209	=209
4.bb	16f	16d	8G
.	16d	16B	.
.	16f	16d	8G
.	16d	16B	.
.	8f	8d	8G
8ff	8r	8r	8r
=210	=210	=210	=210
8ee	8r	2r	8c
8cc	8g	.	8E
8a	8c	.	8F
8dd	8a	.	8F#
=211	=211	=211	=211
8cc	8e	4r	8G
8b	8d	.	8F
8cc	8c	8G	8E
8cc	8c	8G	8E
=212	=212	=212	=212
8dd	8c	8A	8F
8dd	8c	8A	8F
8ee	8c	8B-	8G
8ee	8c	8B-	8G
=213	=213	=213	=213
8ff	8cc	8c	8A
8ff	8cc	8c	8A
8ff#	8cc	8d	8A-
8ff#	8cc	8d	8A-
=214	=214	=214	=214
8gg	4cc	8e	8G
8ee	.	8c	8G
8ff	8dd	8g	8G
16ee	16cc	8g	8G
16dd	16b	.	.
=215	=215	=215	=215
8cc	8cc	8e	8C
8r	8r	8r	8r
8c	8c	8c	8C
8c	8c	8c	8C
=216	=216	=216	=216
8B	8B	8B	8BB
8r	4.r	4.r	4.r
8ff	.	.	.
8ff	.	.	.
=217	=217	=217	=217
8ff	4r	4r	8GG
16gg	.	.	8G
16aa	.	.	.
16gg	8f	8d	8G
16ff	.	.	.
16ee	8f	8d	8G
16dd	.	.	.
=218	=218	=218	=218
8cc	8f	4.d	8G
4b	16g	.	8G
.	16a	.	.
.	16g	.	8G
.	16f	.	.
8cc	16e	8e	8G
.	16d	.	.
=219	=219	=219	=219
8cc#	8c	8f	8G
8dd	8B	8r	8r
8c	8c	8c	8C
8c	8c	8c	8C
=220	=220	=220	=220
8B	8B	8B	8BB
8r	4.r	4.r	4.r
8ff	.	.	.
8ff	.	.	.
=221	=221	=221	=221
8ff	4r	4r	8GG
16gg	.	.	8G
16aa	.	.	.
16gg	8f	8d	8G
16ff	.	.	.
16ee	8f	8d	8G
16dd	.	.	.
=222	=222	=222	=222
8cc	8f	4.d	8G
4b	16g	.	8G
.	16a	.	.
.	16g	.	8G
.	16f	.	.
8cc	16e	8e	8G
.	16d	.	.
=223	=223	=223	=223
8ee	8c	8f#	8G
8dd	8B	8g	4.r
8gg	4r	4r	.
8gg	.	.	.
=224	=224	=224	=224
4.gg	8g	8e	4c
.	8e	8c	.
.	8g	8e	4r
8ccc	8r	8r	.
=225	=225	=225	=225
4.bb	8f	8d	4G
.	8d	8B	.
.	8f	8d	4r
8ff	8r	8r	.
=226	=226	=226	=226
8ee	8r	2r	8C
8cc	8g	.	8E
8a	8c	.	8F
8dd	8a	.	8F#
=227	=227	=227	=227
8b	8d	4.r	8G
8ee	8b	.	8G#
8cc	8e	.	8A
8ff	8cc	8c	8AA
=228	=228	=228	=228
8dd	8g	8f	4BB
8gg	8ff	8d	.
4r	4r	4r	4r
=229	=229	=229	=229
4r	2r	2r	2r
8gg	.	.	.
8gg	.	.	.
=230	=230	=230	=230
4.gg	8cc	8e	8c
.	8cc	8e	8c
.	8cc	8e	8c
8gg#	8r	8r	8r
=231	=231	=231	=231
4.aa	8cc	8d	8F
.	8cc	8d	8F
.	8cc	8d	8F
16ff	8r	8r	8r
16dd	.	.	.
=232	=232	=232	=232
4.cc	16e	4.g	8G
.	16g	.	.
.	16e	.	8G
.	16g	.	.
.	16e	.	8G
.	16g	.	.
8dd	16f	8B	8G
.	16g	.	.
=233	=233	=233	=233
8cc	8e	8c	8C
8r	8r	8r	8r
8c	8c	8c	8C
8c	8c	8c	8C
=234	=234	=234	=234
8G	8G	8G	8GG
8r	8r	8r	8r
8e	8e	8e	8E
8e	8e	8e	8E
=235	=235	=235	=235
8c	8c	8c	8C
8g	8g	8g	8G
8e	8e	8e	8E
8cc	8cc	8cc	8c
=236	=236	=236	=236
8g	8g	8g	8G
8ee	8ee	8e	8e
8cc	8cc	8c	4r
8gg	8gg	8g	.
=237	=237	=237	=237
8ee	8ee	8e	2r
8ccc	8cc	8cc	.
8gg	8g	4r	.
8eee	8ee	.	.
=238	=238	=238	=238
2fff	16d	16G	8BB
.	16d	16G	.
.	16d	16G	8G
.	16d	16G	.
.	16d	16G	8D
.	16d	16G	.
.	16d	16G	8B
.	16d	16G	.
=239	=239	=239	=239
2f	16d	16B	8G
.	16d	16B	.
.	16d	16B	8d
.	16d	16B	.
.	16g	16d	8B
.	16g	16d	.
.	16g	16d	8g
.	16g	16d	.
=240	=240	=240	=240
8e	16g	16c	2c
.	16g	16c	.
8cc	16g	16c	.
.	16g	16c	.
8g	16e	16c	.
.	16e	16c	.
8ee	16e	16c	.
.	16e	16c	.
=241	=241	=241	=241
8cc	16g	16e	2C
.	16g	16e	.
8gg	16g	16e	.
.	16g	16e	.
8ee	16cc	16g	.
.	16cc	16g	.
8eee	16cc	16g	.
.	16cc	16g	.
=242	=242	=242	=242
2ddd	16B	16E	8GG#
.	16B	16E	.
.	16B	16E	8E
.	16B	16E	.
.	16B	16E	8BB
.	16B	16E	.
.	16B	16E	8G#
.	16B	16E	.
=243	=243	=243	=243
2d	16B	16G#	8E
.	16B	16G#	.
.	16B	16G#	8B
.	16B	16G#	.
.	16e	16B	8G#
.	16e	16B	.
.	16e	16B	8e
.	16e	16B	.
=244	=244	=244	=244
8c	16e	16A	2A
.	16e	16A	.
8a	16e	16A	.
.	16e	16A	.
8e	16c	16A	.
.	16c	16A	.
8cc	16c	16A	.
.	16c	16A	.
=245	=245	=245	=245
8a	16e	16c	2AA
.	16e	16c	.
8ee	16e	16c	.
.	16e	16c	.
8cc	16a	16e	.
.	16a	16e	.
8ccc	16a	16e	.
.	16a	16e	.
=246	=246	=246	=246
2bb-	16G	16C	8EE
.	16G	16C	.
.	16G	16C	8C
.	16G	16C	.
.	16G	16C	8GG
.	16G	16C	.
.	16G	16C	8E
.	16G	16C	.
=247	=247	=247	=247
2B-	16G	16E	8C
.	16G	16E	.
.	16G	16E	8G
.	16G	16E	.
.	16c	16G	8E
.	16c	16G	.
.	16c	16G	8c
.	16c	16G	.
=248	=248	=248	=248
8A	16c	16F	2F
.	16c	16F	.
8f	16c	16F	.
.	16c	16F	.
8c	16A	16F	.
.	16A	16F	.
8a	16A	16F	.
.	16A	16F	.
=249	=249	=249	=249
8f	16c	16A	2FF
.	16c	16A	.
8cc	16c	16A	.
.	16c	16A	.
8a	16f	16c	.
.	16f	16c	.
8aa	16f	16c	.
.	16f	16c	.
=250	=250	=250	=250
2ccc	16A	16D	8FF#
.	16A	16D	.
.	16A	16D	8D
.	16A	16D	.
.	16A	16D	8AA
.	16A	16D	.
.	16A	16D	8F#
.	16A	16D	.
=251	=251	=251	=251
2c	16A	16F#	8D
.	16A	16F#	.
.	16A	16F#	8A
.	16A	16F#	.
.	16d	16A	8F#
.	16d	16A	.
.	16d	16A	8d
.	16d	16A	.
=252	=252	=252	=252
8B	16d	16G	8G
.	16d	16G	.
8r	16d	16G	8F
.	16d	16G	.
8g	16e-	16G	8E-
.	16e-	16G	.
8g	16e-	16G	8C
.	16e-	16G	.
=253	=253	=253	=253
8g	16d	16F	8BB
.	16d	16F	.
8r	16d	16F	8GG
.	16d	16F	.
8gg	16c	16E-	8C
.	16c	16E-	.
8gg	16c	16E-	8CC
.	16c	16E-	.
=254	=254	=254	=254
8gg	16B	16D	8GG
.	16B	16D	.
8r	16B	16D	8F
.	16B	16D	.
8g	16e-	16G	8E-
.	16e-	16G	.
8g	16e-	16G	8C
.	16e-	16G	.
=255	=255	=255	=255
8g	16d	16F	8BB
.	16d	16F	.
8g	16d	16F	8GG
.	16d	16F	.
8gg	16c	16E-	8C
.	16c	16E-	.
8gg	16c	16E-	8CC
.	16c	16E-	.
=256	=256	=256	=256
8gg	8B	8D	8GG
8r	8r	8r	8r
8g	8d	8B	8G
8g	8d	8B	8G
=257	=257	=257	=257
8g	8d	8B	8G
8r	4.r	4.r	4.r
8ee	.	.	.
8ee	.	.	.
=258	=258	=258	=258
[2ee	8r	2r	2r
.	8c	.	.
.	8cc	.	.
.	8cc	.	.
=259	=259	=259	=259
8ee]	8cc	4r	2r
16ff	8cc	.	.
16gg	.	.	.
8aa	8cc	8f#	.
8aa	8cc	8r	.
=260	=260	=260	=260
8aa	8b	8g	2r
8dd	8b	8r	.
8gg	8b-	8e	.
8gg	8b-	8r	.
=261	=261	=261	=261
8gg	8a	8f	2r
8cc	8a	8r	.
8ff	8a-	8d	.
8ff	8a-	8r	.
=262	=262	=262	=262
8.ff	2g	4B	2r
16gg	.	.	.
8.ee	.	4c	.
16ff	.	.	.
=263	=263	=263	=263
8.dd	2a	4f	2r
16ee	.	.	.
8.cc	.	4f#	.
16dd	.	.	.
=264	=264	=264	=264
8b	8g	4g	2r
8dd	8d	.	.
8dd	8d	4r	.
8dd	8d	.	.
=265	=265	=265	=265
8dd	8d	8r	2r
8dd#	8d#	8B	.
8ee	8e	8c	.
8ee	8e	8c	.
=266	=266	=266	=266
[2ee	[2e	8c	8r
.	.	8G#	8BB
.	.	8A	8C
.	.	8A	8C
=267	=267	=267	=267
8ee]	8e]	8A	4C
16ff#	8e-	8A	.
16gg	.	.	.
8aa	8ee-	8f#	8c
8aa	8ee-	8f#	8c
=268	=268	=268	=268
8aa	8ee-	8f#	8c
8dd	8dd	8g	8B
8gg	8dd-	8e	8B-
8gg	8dd-	8e	8B-
=269	=269	=269	=269
8gg	8dd-	8e	8B-
8cc	8cc	8f	8A
8ff	8cc	8c	8A-
8ff	8cc	8c	8A-
=270	=270	=270	=270
8.ff	4b	4d	4G
16gg	.	.	.
8.ee	[4cc	4c	4A
16ff	.	.	.
=271	=271	=271	=271
2dd	4cc]	4a	4F
.	4b	8g	4G
.	.	8f	.
=272	=272	=272	=272
8cc	4cc	4e	4C
8r	.	.	.
16ff#	4r	4r	4r
16gg	.	.	.
16ff#	.	.	.
16gg	.	.	.
=273	=273	=273	=273
16aa	8g	8e 8c	8c
16gg	.	.	.
16ff#	8g	8e 8c	8r
16gg	.	.	.
16ff	8g	8e 8c	8C
16ee	.	.	.
16dd	8g	8e 8c	8r
16cc	.	.	.
=274	=274	=274	=274
16cc	4g	4f 4d	4G
16b	.	.	.
16a	.	.	.
16g	.	.	.
16ff#	4r	4r	4r
16gg	.	.	.
16ff#	.	.	.
16gg	.	.	.
=275	=275	=275	=275
16aa	8b 8g	8f 8d	8G
16gg	.	.	.
16ff	8b 8g	8f 8d	8r
16ee	.	.	.
16dd	8b 8g	8f 8d	8GG
16ee	.	.	.
16ff	8b 8g	8f 8d	8r
16gg	.	.	.
=276	=276	=276	=276
16ff	4cc 4g	4e 4c	4C
16ee	.	.	.
16dd	.	.	.
16cc	.	.	.
16ff#	4r	4r	4r
16gg	.	.	.
16ff#	.	.	.
16gg	.	.	.
=277	=277	=277	=277
16aa	8g	8e 8c	8c
16gg	.	.	.
16ff#	8g	8e 8c	8r
16gg	.	.	.
16ff	8g	8e 8c	8C
16ee	.	.	.
16dd	8g	8e 8c	8r
16cc	.	.	.
=278	=278	=278	=278
16cc	4g	4f 4d	4G
16b	.	.	.
16a	.	.	.
16g	.	.	.
16ff#	4r	4r	4r
16gg	.	.	.
16ff#	.	.	.
16gg	.	.	.
=279	=279	=279	=279
16aa	8b 8g	8f 8d	8G
16gg	.	.	.
16ff	8b 8g	8f 8d	8r
16ee	.	.	.
16dd	8b 8g	8f 8d	8GG
16ee	.	.	.
16ff	8b 8g	8f 8d	8r
16gg	.	.	.
=280	=280	=280	=280
16ff	4cc 4g	4e 4c	8C
16ee	.	.	.
16dd	.	.	8C
16cc	.	.	.
16bb	8r	8r	[4c
16ccc	.	.	.
16ddd	8g	8e	.
16ccc	.	.	.
=281	=281	=281	=281
16bb	8a	8f	2c_
16aa	.	.	.
16gg#	8b	8g	.
16aa	.	.	.
16gg	8cc	8a	.
16ff	.	.	.
16ee	8dd	8b	.
16ff	.	.	.
=282	=282	=282	=282
16ee	4ee	4cc	8c]
16ff	.	.	.
16gg	.	.	8C
16aa	.	.	.
16bb	8r	8r	[4c
16ccc	.	.	.
16ddd	8g	8e	.
16ccc	.	.	.
=283	=283	=283	=283
16bb	8a	8f	2c_
16aa	.	.	.
16gg#	8b	8g	.
16aa	.	.	.
16gg	8cc	8a	.
16ff	.	.	.
16ee	8dd	8b	.
16ff	.	.	.
=284	=284	=284	=284
16ee	4ee	4cc	8c]
16ff	.	.	.
16gg	.	.	8C
16aa	.	.	.
16bb	8r	8r	[4c
16ccc	.	.	.
16ddd	8g	8e	.
16ccc	.	.	.
=285	=285	=285	=285
16bb	8a	8f	2c_
16aa	.	.	.
16gg#	8b	8g	.
16aa	.	.	.
16gg	8cc	8a	.
16ff	.	.	.
16ee	8dd	8b	.
16ff	.	.	.
=286	=286	=286	=286
16ff	8g	8cc	8c]
16ee	.	.	.
16aa	8r	8r	8r
16gg	.	.	.
16ff#	4dd	[4g	4B
16gg	.	.	.
16aa	.	.	.
16gg	.	.	.
=287	=287	=287	=287
16ff	8cc	8g]	8c
16ee	.	.	.
16aa	8r	8r	8r
16gg	.	.	.
16ff#	4dd	[4g	4B
16gg	.	.	.
16aa	.	.	.
16gg	.	.	.
=288	=288	=288	=288
16ff	8cc	8g]	8c
16ee	.	.	.
16aa	8r	8r	8r
16gg	.	.	.
16ff#	4dd	[4g	4B
16gg	.	.	.
16aa	.	.	.
16gg	.	.	.
=289	=289	=289	=289
16ff	8cc	8g]	8c
16ee	.	.	.
16aa	8r	8r	8r
16gg	.	.	.
16ff#	4dd	[4g	4B
16gg	.	.	.
16aa	.	.	.
16gg	.	.	.
=290	=290	=290	=290
8ff	8cc	8g]	8c
8ee	4.r	4.r	4.r
8aa	.	.	.
8gg	.	.	.
=291	=291	=291	=291
2gg	2r	2r	2r
=292	=292	=292	=292
2aa-	2a-	8r	8r
.	.	8e-	8c
.	.	8e-	8c
.	.	8e-	8c
=293	=293	=293	=293
2ee-	2e-	8r	8r
.	.	8B-	8G
.	.	8B-	8G
.	.	8B-	8G
=294	=294	=294	=294
4cc	4c	8r	8r
.	.	8e-	8A-
8r	8r	8e-	8A-
8cc	8c	8e-	8A-
=295	=295	=295	=295
8ee-	8e-	8r	8r
8gg	8g	8e-	8d-
8bb-	8b-	8e-	8d-
8gg	8g	8e-	8d-
=296	=296	=296	=296
2aa-	2a-	8r	8r
.	.	8e-	8c
.	.	8e-	8c
.	.	8e-	8c
=297	=297	=297	=297
2ee-	2e-	8r	8r
.	.	8B-	8G
.	.	8B-	8G
.	.	8B-	8G
=298	=298	=298	=298
4cc	4c	8r	8r
.	.	8e-	8A-
8r	8r	8e-	8A-
8cc	8c	8e-	8A-
=299	=299	=299	=299
8ee-	8e-	8r	8r
8gg	8g	8e-	8d-
8bb-	8b-	8e-	8d-
8gg	8g	8e-	8d-
=300	=300	=300	=300
2aa-	2a-	8r	8r
.	.	8e-	8c
.	.	8e-	8c
.	.	8e-	8c
=301	=301	=301	=301
2gg	2g	8d	8B
.	.	8d	8B
.	.	8d-	8B-
.	.	8d-	8B-
=302	=302	=302	=302
8gg	8g	8c	2A
8ff	8f	8B	.
[4ff	[4f	8c	.
.	.	8d	.
=303	=303	=303	=303
4ff]	4f]	8e-	2A-
.	.	8B	.
4ff#	4f#	8c	.
.	.	8d	.
=304	=304	=304	=304
2gg	2g	2e-	8G
.	.	.	8G
.	.	.	8G
.	.	.	8G
=305	=305	=305	=305
2b	2f	2d	8G
.	.	.	8G
.	.	.	8G
.	.	.	8G
=306	=306	=306	=306
2cc	8e-	8c	[2A-
.	8d	8B	.
.	8e-	8c	.
.	8f	8d-	.
=307	=307	=307	=307
2c	8g-	8e-	4A-]
.	8b-	8g-	.
.	8a-	8f	4r
.	8g-	8e-	.
=308	=308	=308	=308
4d-	8f	8d-	2D-
.	8f 8d-	8A-	.
4r	8f 8d-	8A-	.
.	8f 8d-	8A-	.
=309	=309	=309	=309
2r	8r	8r	2AA-
.	8e- 8c	8A-	.
.	8e- 8c	8A-	.
.	8e- 8c	8A-	.
=310	=310	=310	=310
2ddd-	8r	8r	4FF
.	8f 8d-	8A-	.
.	8f 8d-	8A-	8r
.	8f 8d-	8A-	8FF
=311	=311	=311	=311
2aa-	8r	8r	8AA-
.	8g- 8e-	8A-	8C
.	8g- 8e-	8A-	8E-
.	8g- 8e-	8A-	8C
=312	=312	=312	=312
4ff	8r	8r	2D-
.	8f 8d-	8a-	.
8r	8f 8d-	8a-	.
8ff	8f 8d-	8a-	.
=313	=313	=313	=313
8aa-	8r	8r	2AA-
8ccc	8e- 8c	8a-	.
8eee-	8e- 8c	8a-	.
8ccc	8e- 8c	8a-	.
=314	=314	=314	=314
2ddd-	8r	8r	4FF
.	8f 8d-	8a-	.
.	8f 8d-	8a-	8r
.	8f 8d-	8a-	8FF
=315	=315	=315	=315
2aa-	8r	8r	8AA-
.	8g- 8e-	8a-	8C
.	8g- 8e-	8a-	8E-
.	8g- 8e-	8a-	8C
=316	=316	=316	=316
4ff	8r	8r	2D-
.	8f 8d-	8a-	.
8r	8f 8d-	8a-	.
8ff	8f 8d-	8a-	.
=317	=317	=317	=317
8aa-	8r	8r	2AA-
8ccc	8e- 8c	8a-	.
8eee-	8e- 8c	8a-	.
8ccc	8e- 8c	8a-	.
=318	=318	=318	=318
2ddd-	8r	8r	2FF
.	8f 8d-	8a-	.
.	8f 8d-	8a-	.
.	8f 8d-	8a-	.
=319	=319	=319	=319
2ccc	8r	8r	2FF#
.	8e-	8a	.
.	8e-	8a	.
.	8e-	8a	.
=320	=320	=320	=320
2gg	8r	8r	2GG
.	8e-	8g	.
.	8e-	8g	.
.	8e-	8g	.
=321	=321	=321	=321
2b	8r	8r	2AA-
.	8d	8f	.
.	8d	8f	.
.	8d	8f	.
=322	=322	=322	=322
2cc	8r	8r	2AA
.	8f#	8e-	.
.	8f#	8e-	.
.	8f#	8e-	.
=323	=323	=323	=323
2f#	8r	8r	2AA-
.	8c	8E-	.
.	8c	8E-	.
.	8c	8E-	.
=324	=324	=324	=324
2g	2c	2E	8GG
.	.	.	8GG
.	.	.	8GG
.	.	.	8GG
=325	=325	=325	=325
2B	2d	2F	8GG
.	.	.	8GG
.	.	.	8GG
.	.	.	8GG
=326	=326	=326	=326
16c	4c	4E	4CC
16B	.	.	.
16A	.	.	.
16G	.	.	.
16A	4r	4r	4r
16B	.	.	.
16c	.	.	.
16d	.	.	.
=327	=327	=327	=327
16e	4c	4G	4C
16d	.	.	.
16c	.	.	.
16B	.	.	.
16c	4r	4r	4r
16d	.	.	.
16e	.	.	.
16f	.	.	.
=328	=328	=328	=328
16a	4e	4c	4CC
16g	.	.	.
16f	.	.	.
16e	.	.	.
16f	4r	4r	4r
16g	.	.	.
16a	.	.	.
16b	.	.	.
=329	=329	=329	=329
16cc	4g	4e	4C
16b	.	.	.
16a	.	.	.
16g	.	.	.
16a	4r	4r	4r
16b	.	.	.
16cc	.	.	.
16dd	.	.	.
=330	=330	=330	=330
16ee	4cc	4g	4CC
16dd	.	.	.
16cc	.	.	.
16b	.	.	.
16cc	4r	4r	4r
16dd	.	.	.
16ee	.	.	.
16ff	.	.	.
=331	=331	=331	=331
[2gg	8r	4r	2r
.	8e	.	.
.	8ee	8e	.
.	8dd	8e	.
=332	=332	=332	=332
4gg]	4cc#	8e	2r
.	.	8A	.
4ff#	4cc	8d	.
.	.	8d	.
=333	=333	=333	=333
4ff	4b	8d	4r
.	.	8G	.
8ee	8b-	8G	8C
8ee	8b-	8c	8C
=334	=334	=334	=334
8ee	8b-	8r	8C
8ff	8a	8c	8FF
8dd#	8a	8F#	8BB
8dd#	8a	8B	8BB
=335	=335	=335	=335
8dd#	8a	8r	8BB
8ee	8g#	8b	8EE
8ccc#	8gg	8e	8A
8ccc#	8gg	8a	8A
=336	=336	=336	=336
8ccc#	8gg	8r	8A
8ddd	8ff#	8a	8D
8bb	8ff	8d	8G
8bb	8ff	8g	8G
=337	=337	=337	=337
8bb	8ff	8r	8G
8ccc	8ee	8g	8C
8ff#	8ee-	8c	8A
8ff#	8ee-	8cc	8A
=338	=338	=338	=338
4.gg	4.ee	4.cc	8G
.	.	.	8G
.	.	.	8G
8ccc	8gg	8ee	8G
=339	=339	=339	=339
4.ee	4.cc	4.g	8G
.	.	.	8G
.	.	.	8G
16ff	16dd	8f	8G
16dd	16b	.	.
=340	=340	=340	=340
4cc	4cc	4e	4C
4r	4r	4r	4r
=341	=341	=341	=341
16cc#	4b	4g	2f
16dd	.	.	.
16ee	.	.	.
16ff	.	.	.
16ff#	4dd	4b	.
16gg	.	.	.
16aa	.	.	.
16gg	.	.	.
=342	=342	=342	=342
4gg	4ee	4cc	4e
8ccc	8cc	8e	8A
8r	8r	8r	8r
=343	=343	=343	=343
4dd	4cc	4a	4F
8gg	8b	8d	8G
8r	8r	8r	8r
=344	=344	=344	=344
4ff	4dd	4b	[4A
8ee	8cc	8cc	8A]
8r	8r	8r	8r
=345	=345	=345	=345
16c#	4A	4F	2FF
16d	.	.	.
16e	.	.	.
16f	.	.	.
16f#	4B	4D	.
16g	.	.	.
16a	.	.	.
16g	.	.	.
=346	=346	=346	=346
4g	4c	4C	4EE
8cc	8A	8E-	8FF#
8r	8r	8r	8r
=347	=347	=347	=347
4c	4G	4E	2GG
4d	4B	4F	.
=348	=348	=348	=348
8c	8c	8E	8C
8r	8r	8r	4.r
8e	8c	8A	.
8r	8r	8A	.
=349	=349	=349	=349
8f	8d	8A	2r
8r	8r	8D	.
8d	8B	8G	.
8r	8r	8G	.
=350	=350	=350	=350
8e	8c	8G	4r
8r	8r	8C	.
8cc	8e	8A	8AA
8r	8r	8r	8AA
=351	=351	=351	=351
8dd	8f	8A	8AA
8r	8r	8r	8DD
8b	8d	8G	8GG
8r	8r	8r	8GG
=352	=352	=352	=352
8cc	8e	8G	8GG
8r	8r	8r	8CC
8aa	8cc	8e-	8FF#
8aa	8r	8r	8r
=353	=353	=353	=353
8aa	8cc	8d	8GG
8dd	8r	8r	8r
8gg	8b	8f	8GG
8gg	8r	8r	8r
=354	=354	=354	=354
8gg	8cc	8e	8CC
8cc	8r	8r	4.r
8cc	8c	8c	.
8cc	8d	8B	.
=355	=355	=355	=355
8cc	8e	8B-	8G
8cc	8f	8A	8F
8cc	8g	8G	8E
8cc	8a	8F	8D
=356	=356	=356	=356
8dd	4b-	4E	4C
8cc	.	.	.
8ccc	8cc	8cc	4r
8ccc	8dd	8b	.
=357	=357	=357	=357
8ccc	8ee	8b-	8g
8ccc	8ff	8a	8f
8ccc	8gg	8g	8e
8ccc	8aa	8f	8d
=358	=358	=358	=358
8ddd	4bb-	4e	4c
8ccc	.	.	.
8ccc	4r	4r	4r
8ccc	.	.	.
=359	=359	=359	=359
8ccc	2r	2r	2r
8bb	.	.	.
8bb	.	.	.
8bb-	.	.	.
=360	=360	=360	=360
8bb-	2gg	2ee	2c#
8aa	.	.	.
8aa	.	.	.
8aa	.	.	.
=361	=361	=361	=361
8aa	4ff#	4ee-	4c
8aa	.	.	.
8aa	4r	4r	4r
8aa-	.	.	.
=362	=362	=362	=362
8aa-	4ff	4dd	4B
8gg	.	.	.
8gg	[4ee	[4cc	4c
8gg	.	.	.
=363	=363	=363	=363
8gg	4ee]	4cc]	4A
8ff	.	.	.
8ff	[4dd	[4b	4B
8ff	.	.	.
=364	=364	=364	=364
8ff	4dd]	4b]	4G#
8ee	.	.	.
8ee	[4cc	[4a	4A
8ee	.	.	.
=365	=365	=365	=365
8ee	2cc]	2a]	4F
8dd	.	.	.
8dd	.	.	4F#
8dd	.	.	.
=366	=366	=366	=366
8ee	4b	4g	4G
8dd	.	.	.
8dd	4r	4r	4r
8dd	.	.	.
=367	=367	=367	=367
8ee	4f#	4c	4A
8dd	.	.	.
8dd	4r	4r	4r
8dd	.	.	.
=368	=368	=368	=368
8ee	4g	4B	4G
8dd	.	.	.
8dd	4r	4r	4r
8dd	.	.	.
=369	=369	=369	=369
8ee-	4c	4A	4FF#
8dd	.	.	.
8dd	4r	4r	4r
8dd	.	.	.
=370	=370	=370	=370
8ee-	4B	4G	4GG
8dd	.	.	.
8dd	4r	4r	4r
8dd	.	.	.
=371	=371	=371	=371
4r	2r	2r	2r
8gg	.	.	.
8gg	.	.	.
=372	=372	=372	=372
4.gg	16g	16e	8C
.	16e	16c	.
.	16g	16e	8C
.	16e	16c	.
.	8g	8e	8C
8ccc	8r	8r	8r
=373	=373	=373	=373
4.bb	16f	16d	8GG
.	16d	16B	.
.	16f	16d	8GG
.	16d	16B	.
.	8f	8d	8GG
8ff	8r	8r	8r
=374	=374	=374	=374
8ee	8r	2r	8C
8cc	8g	.	8E
8a	8c	.	8F
8dd	8a	.	8F#
=375	=375	=375	=375
8b	8d	4.r	8G
8ee	8b	.	8G#
8cc	8e	.	8A
8ff	8cc	8c	8AA
=376	=376	=376	=376
8dd	8g	8f	4BB
8gg	8ff	8d	.
4r	4r	4r	4r
=377	=377	=377	=377
4r	2r	2r	2r
8gg	.	.	.
8gg	.	.	.
=378	=378	=378	=378
4.gg	8r	[2e	8c
.	8cc	.	8c
.	8b	.	8c
8gg#	8b-	.	8c
=379	=379	=379	=379
4.aa	4.a	8e]	8F
.	.	8c#	8F
.	.	8d	8F
16ff	16d	8a	8F
16dd	16f	.	.
=380	=380	=380	=380
4.cc	16e	4.g	8G
.	16g	.	.
.	16e	.	8G
.	16g	.	.
.	16e	.	8G
.	16g	.	.
16ee	16f	8B	8G
16dd	16g	.	.
=381	=381	=381	=381
8cc	8e	8c	4C
8r	8g	8e	.
[4gg	8f	8d	4r
.	8e	8c	.
=382	=382	=382	=382
8gg]	8d	8B	2F
16aa	8B	8G	.
16gg	.	.	.
[4gg	8c	8A	.
.	8d	8B	.
=383	=383	=383	=383
8gg]	8e	8c	4E
16ff#	8g	8e	.
16gg	.	.	.
[4gg	8f	8d	4r
.	8e	8c	.
=384	=384	=384	=384
8gg]	8d	8B	2FF
16aa	8B	8G	.
16gg	.	.	.
[4gg	8c	8A	.
.	8d	8B	.
=385	=385	=385	=385
8gg]	8e	8c	4EE
16ff#	8g	8e	.
16gg	.	.	.
[4gg	8f	8d	4r
.	8e	8c	.
=386	=386	=386	=386
8gg]	8d	8B	2F
16aa	8B	8G	.
16gg	.	.	.
[4gg	8c	8A	.
.	8d	8B	.
=387	=387	=387	=387
8gg]	8e	8c	8E
8gg	8r	8r	8r
8r	8dd	8f	8B
8gg	8r	8r	8r
=388	=388	=388	=388
8.gg	8.ee	8.e	8.c
16aa	16ff	16d	16B
8.gg	8.ee	8.e	8.c
16aa	16ff	16d	16B
=389	=389	=389	=389
16gg	16ee	16e	16c
16aa	16ff	16d	16B
16gg	16ee	16e	16c
16aa	16ff	16d	16B
16gg	16ee	16e	16c
16aa	16ff	16d	16B
16gg	16ee	16e	16c
16aa	16ff	16d	16B
=390	=390	=390	=390
16gg	16ee	16e	16c
16aa	16ff	16d	16B
16gg	16ee	16e	16c
16aa	16ff	16d	16B
16gg	16ee	16e	16c
16aa	16ff	16d	16B
16gg	16ee	16e	16c
16aa	16ff	16d	16B
=391	=391	=391	=391
8gg	16ee	16e	8c
.	16ee	16g	.
8eee	16ee	16g	8C
.	16ee	16g	.
8r	16b	16f	8D
.	16b	16f	.
8ddd	16b	16f	8D
.	16b	16f	.
=392	=392	=392	=392
8r	16cc	16e	8E
.	16cc	16e	.
8ccc	16cc	16e	8E
.	16cc	16e	.
8r	16cc	16d	8F
.	16cc	16d	.
8aa	16cc	16d	8F
.	16cc	16d	.
=393	=393	=393	=393
8r	16cc	16e	8G
.	16cc	16e	.
8gg	16cc	16e	8G
.	16cc	16e	.
8r	16f	16d	8GG
.	16f	16d	.
8b	16f	16d	8GG
.	16f	16d	.
=394	=394	=394	=394
4cc	8e	8c	8C
.	8r	8G	8E
4r	[4g	8F	8D
.	.	8E	8C
=395	=395	=395	=395
2fff	8g]	8D	8BB
.	16a	8B	8GG
.	16g	.	.
.	[4g	8c	8AA
.	.	8d	8BB
=396	=396	=396	=396
4eee	8g]	8e	8C
.	16f#	8G	8E
.	16g	.	.
4r	[4g	8F	8D
.	.	8E	8C
=397	=397	=397	=397
2ff	8g]	8D	8BB
.	16a	8B	8GG
.	16g	.	.
.	[4g	8c	8AA
.	.	8d	8BB
=398	=398	=398	=398
4ee	8g]	8e	8C
.	16f#	8G	8E
.	16g	.	.
4r	[4g	8F	8D
.	.	8E	8C
=399	=399	=399	=399
2f	8g]	8D	8BB
.	16a	8B	8GG
.	16g	.	.
.	4g	8c	8AA
.	.	8d	8BB
=400	=400	=400	=400
8e	8g	8c	8C
8gg	8r	8r	8r
8r	8ff	8d	8B
8gg	8r	8r	8r
=401	=401	=401	=401
8.gg	8.ee	8.e	8.c
16aa	16ff	16d	16B
8.gg	8.ee	8.e	8.c
16aa	16ff	16d	16B
=402	=402	=402	=402
16gg	16ee	16e	16c
16aa	16ff	16d	16B
16gg	16ee	16e	16c
16aa	16ff	16d	16B
16gg	16ee	16e	16c
16aa	16ff	16d	16B
16gg	16ee	16e	16c
16aa	16ff	16d	16B
=403	=403	=403	=403
16gg	16ee	16e	16c
16aa	16ff	16d	16B
16gg	16ee	16e	16c
16aa	16ff	16d	16B
16gg	16ee	16e	16c
16aa	16ff	16d	16B
16gg	16ee	16e	16c
16aa	16ff	16d	16B
=404	=404	=404	=404
8gg	16ee	16e	8c
.	16gg	16e	.
8eee	16gg	16e	8C
.	16gg	16e	.
8r	16gg	16g	8D
.	16ff	16b	.
8ddd	16ff	16b	8D
.	16ff	16b	.
=405	=405	=405	=405
8r	16ff	16b	8E
.	16ee	16cc	.
8ccc	16ee	16cc	8E
.	16ee	16cc	.
8r	16ee	16g	8F
.	16dd	16f	.
8aa	16dd	16f	8F
.	16dd	16f	.
=406	=406	=406	=406
8r	16dd	16f	8G
.	16cc	16e	.
8gg	16cc	16e	8G
.	16cc	16e	.
8r	16g	16e	8GG
.	16f	16d	.
8b	16f	16d	8GG
.	16f	16d	.
=407	=407	=407	=407
4cc	8e	8c	8C
.	8r	8r	4.r
4cc#	4g	8A	.
.	.	8A	.
=408	=408	=408	=408
4dd	4f	8A	4r
.	.	8D	.
4ee	4b-	4r	8C
.	.	.	8C
=409	=409	=409	=409
4ff	4a	4r	8C
.	.	.	8FF
8aa	4r	4c	8F
8aa	.	.	8r
=410	=410	=410	=410
8aa	4r	4B	8G
8dd	.	.	8r
4r	8gg	8b 8f	8GG
.	8gg	8r	8r
=411	=411	=411	=411
4cc	8gg	8cc 8e	8C
.	8cc	8r	4.r
4cc#	4g	8A	.
.	.	8A	.
=412	=412	=412	=412
4dd	4f	8A	4r
.	.	8D	.
4ee	4b-	4r	8C
.	.	.	8C
=413	=413	=413	=413
4ff	4a	4r	8C
.	.	.	8FF
8aa	4r	4c	8F
8aa	.	.	8r
=414	=414	=414	=414
8aa	4r	4B	8G
8dd	.	.	8r
4r	8gg	8b 8f	8GG
.	8gg	8r	8r
=415	=415	=415	=415
4r	8gg	8cc 8e	8C
.	8cc	8r	8r
8a	8a	8A	8AA
8a	8a	8A	8AA
=416	=416	=416	=416
8a	8a	8A	8AA
8d	8d	8D	8DD
8g	8g	8G	8GG
8g	8g	8G	8GG
=417	=417	=417	=417
8g	8g	8G	8GG
8c	8c	8C	8CC
8b 8d 8G	8g	8G	8GG
8r	8g	8G	8r
=418	=418	=418	=418
8cc 8e 8G	8g	8G	8C
8r	8c	8C	8r
8bb 8dd 8g	8gg	8g	8GG
8r	8gg	8g	8r
=419	=419	=419	=419
8ccc 8ee 8g	8gg	8g	8CC
4.r	8cc	8c	4.r
.	4r	4r	.
==	==	==	==
*-	*-	*-	*-
!!!RWG1: This file contains only pitch and duration data.
!!!RWG2: Transposing instruments are not transposed.
!!!RWG3: Spines may have incompatible meters.
!!!RWG4: Durations of rests and tied notes may be interpreted.
!!!RWG: Key is interpreted using the Humdrum key tool.
!!!AFT: stage1
!!!END: 1997/04/15
!!format changes:
!!content changes:
!!public access: complete
!!!KEY: 3577845674
!!!EMD: Converted from MuseData to Humdrum Dec 16, 2000, by Andreas Kornstaedt using muse2kern.
